Newaita-dark/actions/scalable/system-switch-user.svg

<?xml version="1.0" encoding="UTF-8"?>
<svg xmlns="http://www.w3.org/2000/svg" xmlns:xlink="http://www.w3.org/1999/xlink" width="512pt" height="512pt" viewBox="0 0 512 512" version="1.1">
<defs>
<filter id="alpha" filterUnits="objectBoundingBox" x="0%" y="0%" width="100%" height="100%">
  <feColorMatrix type="matrix" in="SourceGraphic" values="0 0 0 0 1 0 0 0 0 1 0 0 0 0 1 0 0 0 1 0"/>
</filter>
<mask id="mask0">
  <g filter="url(#alpha)">
<rect x="0" y="0" width="512" height="512" style="fill:rgb(0%,0%,0%);fill-opacity:0.988235;stroke:none;"/>
  </g>
</mask>
<clipPath id="clip1">
  <rect x="0" y="0" width="512" height="512"/>
</clipPath>
<g id="surface5" clip-path="url(#clip1)">
<path style=" stroke:none;fill-rule:nonzero;fill:rgb(14.901961%,65.098041%,60.392159%);fill-opacity:1;" d="M 254.023438 25.167969 C 125.386719 25.167969 21.167969 129.386719 21.167969 258.023438 C 21.167969 386.660156 125.386719 490.882812 254.023438 490.882812 C 382.660156 490.882812 486.878906 386.660156 486.878906 258.023438 C 486.878906 129.386719 382.660156 25.167969 254.023438 25.167969 Z M 254.023438 56.921875 C 365.433594 56.921875 455.125 146.613281 455.125 258.023438 C 455.125 369.433594 365.433594 459.125 254.023438 459.125 C 142.613281 459.125 52.921875 369.433594 52.921875 258.023438 C 52.921875 146.613281 142.613281 56.921875 254.023438 56.921875 Z M 254.023438 56.921875 "/>
</g>
</defs>
<g id="surface1">
<use xlink:href="#surface5" mask="url(#mask0)"/>
<path style=" stroke:none;fill-rule:nonzero;fill:rgb(14.901961%,65.098041%,60.392159%);fill-opacity:1;" d="M 283.785156 237.777344 C 279.707031 237.613281 275.734375 239.121094 272.789062 241.949219 C 269.84375 244.777344 268.179688 248.683594 268.179688 252.765625 L 268.179688 379.777344 C 268.179688 385.183594 271.085938 390.171875 275.789062 392.832031 C 280.492188 395.496094 286.265625 395.421875 290.898438 392.644531 L 396.742188 329.136719 C 401.261719 326.425781 404.023438 321.542969 404.023438 316.273438 C 404.023438 311.003906 401.261719 306.121094 396.742188 303.410156 L 290.898438 239.902344 C 288.746094 238.609375 286.296875 237.878906 283.785156 237.777344 Z M 298.183594 279.261719 L 359.867188 316.273438 L 298.183594 353.285156 Z M 298.183594 279.261719 "/>
<path style=" stroke:none;fill-rule:nonzero;fill:rgb(14.901961%,65.098041%,60.392159%);fill-opacity:1;" d="M 224.261719 121.28125 C 228.34375 121.117188 232.3125 122.621094 235.257812 125.449219 C 238.203125 128.277344 239.867188 132.1875 239.871094 136.269531 L 239.871094 263.28125 C 239.867188 268.6875 236.960938 273.671875 232.257812 276.335938 C 227.554688 279 221.78125 278.925781 217.148438 276.144531 L 111.304688 212.640625 C 106.789062 209.929688 104.023438 205.046875 104.023438 199.777344 C 104.023438 194.507812 106.789062 189.625 111.304688 186.914062 L 217.148438 123.40625 C 219.304688 122.113281 221.75 121.382812 224.261719 121.28125 Z M 209.867188 162.765625 L 148.179688 199.777344 L 209.867188 236.785156 Z M 209.867188 162.765625 "/>
</g>
</svg>

<svg xmlns="http://www.w3.org/2000/svg" xmlns:xlink="http://www.w3.org/1999/xlink" width="512pt" height="512pt" viewBox="0 0 512 512"><defs><filter id="a" filterUnits="objectBoundingBox" x="0%" y="0%" width="100%" height="100%"><feColorMatrix in="SourceGraphic" values="0 0 0 0 1 0 0 0 0 1 0 0 0 0 1 0 0 0 1 0"/></filter><mask id="d"><path fill-opacity=".988" d="M0 0h512v512H0z" filter="url(#a)"/></mask><clipPath id="b"><path d="M0 0h512v512H0z"/></clipPath><g id="c" clip-path="url(#b)"><path d="M254.023 25.168c-128.636 0-232.855 104.219-232.855 232.855 0 128.637 104.219 232.86 232.855 232.86 128.637 0 232.856-104.223 232.856-232.86 0-128.636-104.219-232.855-232.856-232.855zm0 31.754c111.41 0 201.102 89.691 201.102 201.101s-89.691 201.102-201.102 201.102c-111.41 0-201.101-89.691-201.101-201.102 0-111.41 89.691-201.101 201.101-201.101zm0 0" fill="#26a69a"/></g></defs><use xlink:href="#c" mask="url(#d)"/><path d="M283.785 237.777a15.01 15.01 0 0 0-10.996 4.172 14.995 14.995 0 0 0-4.61 10.817v127.011a14.996 14.996 0 0 0 7.61 13.055 15.006 15.006 0 0 0 15.11-.187l105.843-63.508a14.996 14.996 0 0 0 7.281-12.864c0-5.27-2.761-10.152-7.28-12.863l-105.845-63.508a14.996 14.996 0 0 0-7.113-2.125zm14.399 41.485l61.683 37.011-61.683 37.012zm0 0M224.262 121.281a15.001 15.001 0 0 1 15.61 14.989V263.28a15.012 15.012 0 0 1-7.614 13.055 14.997 14.997 0 0 1-15.11-.191L111.305 212.64a15.005 15.005 0 0 1 0-25.727l105.843-63.508a15.01 15.01 0 0 1 7.114-2.125zm-14.395 41.485l-61.687 37.011 61.687 37.008zm0 0" fill="#26a69a"/></svg>
